img/logo-w.svg

<svg viewBox="0 0 160 24" xmlns="http://www.w3.org/2000/svg" xmlns:xlink="http://www.w3.org/1999/xlink" width="160.000000" height="24.000000" fill="none" customFrame="#000000">
	<path id="Форма 2" d="M27.7934 11.9936L36.5869 11.9936L35.9153 15.3661L27.153 15.3661L27.7934 11.9936Z" fill="rgb(255,255,255)" fill-rule="nonzero" />
	<path id="Форма 2" d="M72.6353 0L68.1605 22.6968L39.3668 22.6968L43.8495 0L47.9729 0L44.2321 19.1265L52.4555 19.1265L56.1963 0L60.3197 0L56.579 19.1265L64.7711 19.1265L68.5119 0L72.6353 0Z" fill="rgb(255,255,255)" fill-rule="nonzero" />
	<path id="Форма 2" d="M72.6353 0L68.1605 22.6968L39.3668 22.6968L43.8495 0L47.9729 0L44.2321 19.1265L52.4555 19.1265L56.1963 0L60.3197 0L56.579 19.1265L64.7711 19.1265L68.5119 0L72.6353 0Z" fill="rgb(255,255,255)" fill-rule="nonzero" />
	<path id="Форма 2" d="M85.9139 13.9411L90.9042 22.6968L86.2654 22.6968L82.6496 15.754L79.3852 15.754L78.0107 22.6968L74.0122 22.6968L77.4328 5.38328L81.4313 5.38328L80.0568 12.3815L83.1259 12.3815L89.6234 5.38328L94.0046 5.38328L85.9139 13.9411Z" fill="rgb(255,255,255)" fill-rule="nonzero" />
	<path id="Форма 2" d="M85.9139 13.9411L90.9042 22.6968L86.2654 22.6968L82.6496 15.754L79.3852 15.754L78.0107 22.6968L74.0122 22.6968L77.4328 5.38328L81.4313 5.38328L80.0568 12.3815L83.1259 12.3815L89.6234 5.38328L94.0046 5.38328L85.9139 13.9411Z" fill="rgb(255,255,255)" fill-rule="nonzero" />
	<path id="Форма 2" d="M137.839 5.38328L134.411 22.6968L130.412 22.6968L133.138 8.81907L126.734 8.81907L125.906 12.2549C125.307 14.7407 124.693 16.7568 124.063 18.3031C123.438 19.8495 122.694 21.0238 121.83 21.826C120.965 22.6229 119.924 23.0214 118.706 23.0214C118.045 23.0214 117.277 22.9027 116.402 22.6652L117.3 19.261C117.597 19.3244 117.852 19.356 118.065 19.356C119.112 19.356 119.945 18.7517 120.564 17.5431C121.184 16.3293 121.801 14.4794 122.415 11.9936L124.016 5.38328L137.839 5.38328Z" fill="rgb(255,255,255)" fill-rule="nonzero" />
	<path id="Форма 2" d="M137.839 5.38328L134.411 22.6968L130.412 22.6968L133.138 8.81907L126.734 8.81907L125.906 12.2549C125.307 14.7407 124.693 16.7568 124.063 18.3031C123.438 19.8495 122.694 21.0238 121.83 21.826C120.965 22.6229 119.924 23.0214 118.706 23.0214C118.045 23.0214 117.277 22.9027 116.402 22.6652L117.3 19.261C117.597 19.3244 117.852 19.356 118.065 19.356C119.112 19.356 119.945 18.7517 120.564 17.5431C121.184 16.3293 121.801 14.4794 122.415 11.9936L124.016 5.38328L137.839 5.38328Z" fill="rgb(255,255,255)" fill-rule="nonzero" />
	<path id="Форма 2" d="M160 5.38328L156.611 22.6968L152.8 22.6968L153.159 20.9156C151.665 22.2562 149.809 22.9264 147.591 22.9264C146.18 22.9264 144.904 22.6229 143.764 22.016C142.624 21.4091 141.723 20.5277 141.062 19.3719C140.401 18.2161 140.07 16.8597 140.07 15.3028C140.07 13.3817 140.492 11.6479 141.335 10.1016C142.179 8.55518 143.329 7.34923 144.787 6.48368C146.25 5.61813 147.887 5.18536 149.699 5.18536C152.427 5.18536 154.369 6.10368 155.525 7.94033L156.002 5.38328L160 5.38328ZM148.614 19.451C149.743 19.451 150.751 19.1766 151.636 18.6277C152.521 18.0788 153.219 17.3136 153.729 16.3319C154.244 15.345 154.502 14.2235 154.502 12.9674C154.502 11.6057 154.106 10.5422 153.315 9.77698C152.524 9.00643 151.415 8.62116 149.988 8.62116C148.858 8.62116 147.851 8.89824 146.966 9.4524C146.081 10.0013 145.381 10.7692 144.865 11.7561C144.355 12.7378 144.1 13.8567 144.1 15.1128C144.1 16.4744 144.493 17.5379 145.279 18.3031C146.07 19.0684 147.182 19.451 148.614 19.451Z" fill="rgb(255,255,255)" fill-rule="nonzero" />
	<path id="Форма 2" d="M160 5.38328L156.611 22.6968L152.8 22.6968L153.159 20.9156C151.665 22.2562 149.809 22.9264 147.591 22.9264C146.18 22.9264 144.904 22.6229 143.764 22.016C142.624 21.4091 141.723 20.5277 141.062 19.3719C140.401 18.2161 140.07 16.8597 140.07 15.3028C140.07 13.3817 140.492 11.6479 141.335 10.1016C142.179 8.55518 143.329 7.34923 144.787 6.48368C146.25 5.61813 147.887 5.18536 149.699 5.18536C152.427 5.18536 154.369 6.10368 155.525 7.94033L156.002 5.38328L160 5.38328ZM148.614 19.451C149.743 19.451 150.751 19.1766 151.636 18.6277C152.521 18.0788 153.219 17.3136 153.729 16.3319C154.244 15.345 154.502 14.2235 154.502 12.9674C154.502 11.6057 154.106 10.5422 153.315 9.77698C152.524 9.00643 151.415 8.62116 149.988 8.62116C148.858 8.62116 147.851 8.89824 146.966 9.4524C146.081 10.0013 145.381 10.7692 144.865 11.7561C144.355 12.7378 144.1 13.8567 144.1 15.1128C144.1 16.4744 144.493 17.5379 145.279 18.3031C146.07 19.0684 147.182 19.451 148.614 19.451Z" fill="rgb(255,255,255)" fill-rule="nonzero" />
	<path id="Форма 2" d="M105.821 3.31643C103.813 3.03247 101.767 3.3585 99.9422 4.2533C98.117 5.14809 96.5945 6.57145 95.5673 8.3434C94.54 10.1153 94.0542 12.1563 94.1712 14.2081C94.2882 16.26 95.0028 18.2306 96.2246 19.8707C97.4464 21.5108 99.1206 22.7469 101.035 23.4225C102.95 24.0981 105.02 24.183 106.982 23.6663C108.944 23.1497 110.712 22.0548 112.06 20.52C113.409 18.9853 114.278 17.0797 114.558 15.0441C114.807 13.2375 114.582 11.3964 113.906 9.70577C113.23 8.01519 112.127 6.53471 110.708 5.41315C109.289 4.29158 107.604 3.56845 105.821 3.31643ZM105.538 5.37482C107.14 5.6021 108.641 6.30472 109.85 7.39428C111.059 8.48384 111.924 9.91165 112.334 11.498C109.972 10.5215 107.499 9.84752 104.972 9.4916C102.437 9.13354 99.868 9.10163 97.3255 9.39662C98.1479 7.97738 99.3674 6.83756 100.829 6.12159C102.291 5.40561 103.93 5.14571 105.538 5.37482ZM96.1881 13.1494L97.3335 13.175C98.1807 13.1938 99.0053 13.4552 99.7122 13.9292C100.419 14.4031 100.979 15.0701 101.328 15.8531C101.676 16.6362 101.799 17.5032 101.682 18.354L101.278 21.2872C99.7013 20.6347 98.3637 19.5005 97.4515 18.0422C96.5393 16.5838 96.0977 14.8737 96.1881 13.1494ZM105.34 21.8615L105.743 18.9283C105.86 18.0815 106.211 17.2853 106.754 16.6309C107.297 15.9766 108.01 15.4905 108.813 15.2284C109.616 14.9663 110.476 14.9388 111.293 15.1491L112.402 15.4422C112.026 17.1221 111.144 18.642 109.879 19.792C108.614 20.942 107.028 21.6651 105.34 21.8615Z" fill="rgb(255,255,255)" fill-rule="evenodd" />
	<path id="Форма 2" d="M105.821 3.31643C103.813 3.03247 101.767 3.3585 99.9422 4.2533C98.117 5.14809 96.5945 6.57145 95.5673 8.3434C94.54 10.1153 94.0542 12.1563 94.1712 14.2081C94.2882 16.26 95.0028 18.2306 96.2246 19.8707C97.4464 21.5108 99.1206 22.7469 101.035 23.4225C102.95 24.0981 105.02 24.183 106.982 23.6663C108.944 23.1497 110.712 22.0548 112.06 20.52C113.409 18.9853 114.278 17.0797 114.558 15.0441C114.807 13.2375 114.582 11.3964 113.906 9.70577C113.23 8.01519 112.127 6.53471 110.708 5.41315C109.289 4.29158 107.604 3.56845 105.821 3.31643ZM105.538 5.37482C107.14 5.6021 108.641 6.30472 109.85 7.39428C111.059 8.48384 111.924 9.91165 112.334 11.498C109.972 10.5215 107.499 9.84752 104.972 9.4916C102.437 9.13354 99.868 9.10163 97.3255 9.39662C98.1479 7.97738 99.3674 6.83756 100.829 6.12159C102.291 5.40561 103.93 5.14571 105.538 5.37482ZM96.1881 13.1494L97.3335 13.175C98.1807 13.1938 99.0053 13.4552 99.7122 13.9292C100.419 14.4031 100.979 15.0701 101.328 15.8531C101.676 16.6362 101.799 17.5032 101.682 18.354L101.278 21.2872C99.7013 20.6347 98.3637 19.5005 97.4515 18.0422C96.5393 16.5838 96.0977 14.8737 96.1881 13.1494ZM105.34 21.8615L105.743 18.9283C105.86 18.0815 106.211 17.2853 106.754 16.6309C107.297 15.9766 108.01 15.4905 108.813 15.2284C109.616 14.9663 110.476 14.9388 111.293 15.1491L112.402 15.4422C112.026 17.1221 111.144 18.642 109.879 19.792C108.614 20.942 107.028 21.6651 105.34 21.8615Z" fill="rgb(255,255,255)" fill-rule="evenodd" />
	<path id="Форма 2" d="M18.9381 17.4402L7.67675 17.4402L4.45142 22.6968L0 22.6968L14.5569 0L18.6804 0L24.2485 22.6968L20.1251 22.6968L18.9381 17.4402ZM18.1727 14.139L15.9002 4.14829L9.73065 14.139L18.1727 14.139Z" fill="rgb(255,255,255)" fill-rule="nonzero" />
	<path id="Форма 2" d="M18.9381 17.4402L7.67675 17.4402L4.45142 22.6968L0 22.6968L14.5569 0L18.6804 0L24.2485 22.6968L20.1251 22.6968L18.9381 17.4402ZM18.1727 14.139L15.9002 4.14829L9.73065 14.139L18.1727 14.139Z" fill="rgb(255,0,0)" fill-rule="nonzero" />
</svg>

<svg xmlns="http://www.w3.org/2000/svg" width="160" height="24" fill="none"><path d="M27.793 11.994h8.794l-.672 3.372h-8.762l.64-3.372ZM72.635 0 68.16 22.697H39.367L43.85 0h4.123l-3.74 19.127h8.223L56.196 0h4.124l-3.741 19.127h8.192L68.511 0h4.124Z" fill="#FFF"/><path d="M72.635 0 68.16 22.697H39.367L43.85 0h4.123l-3.74 19.127h8.223L56.196 0h4.124l-3.741 19.127h8.192L68.511 0h4.124ZM85.914 13.941l4.99 8.756h-4.639l-3.615-6.943h-3.265l-1.374 6.943h-3.999l3.42-17.314h4l-1.375 6.999h3.069l6.497-6.999h4.382l-8.091 8.558Z" fill="#FFF"/><path d="m85.914 13.941 4.99 8.756h-4.639l-3.615-6.943h-3.265l-1.374 6.943h-3.999l3.42-17.314h4l-1.375 6.999h3.069l6.497-6.999h4.382l-8.091 8.558ZM137.839 5.383l-3.428 17.314h-3.999l2.726-13.878h-6.404l-.828 3.436c-.599 2.486-1.213 4.502-1.843 6.048-.625 1.546-1.369 2.72-2.233 3.523-.865.797-1.906 1.195-3.124 1.195-.661 0-1.429-.118-2.304-.356l.898-3.404c.297.063.552.095.765.095 1.047 0 1.88-.604 2.499-1.813.62-1.214 1.237-3.064 1.851-5.55l1.601-6.61h13.823Z" fill="#FFF"/><path d="m137.839 5.383-3.428 17.314h-3.999l2.726-13.878h-6.404l-.828 3.436c-.599 2.486-1.213 4.502-1.843 6.048-.625 1.546-1.369 2.72-2.233 3.523-.865.797-1.906 1.195-3.124 1.195-.661 0-1.429-.118-2.304-.356l.898-3.404c.297.063.552.095.765.095 1.047 0 1.88-.604 2.499-1.813.62-1.214 1.237-3.064 1.851-5.55l1.601-6.61h13.823ZM160 5.383l-3.389 17.314H152.8l.359-1.781c-1.494 1.34-3.35 2.01-5.568 2.01-1.411 0-2.687-.303-3.827-.91-1.14-.607-2.041-1.488-2.702-2.644-.661-1.156-.992-2.512-.992-4.07 0-1.92.422-3.654 1.265-5.2.844-1.547 1.994-2.753 3.452-3.618 1.463-.866 3.1-1.299 4.912-1.299 2.728 0 4.67.919 5.826 2.755l.477-2.557H160Zm-11.386 14.068c1.129 0 2.137-.274 3.022-.823.885-.55 1.583-1.314 2.093-2.296.515-.987.773-2.109.773-3.365 0-1.361-.396-2.425-1.187-3.19-.791-.77-1.9-1.156-3.327-1.156-1.13 0-2.137.277-3.022.831-.885.55-1.585 1.317-2.101 2.304-.51.982-.765 2.1-.765 3.357 0 1.361.393 2.425 1.179 3.19.791.765 1.903 1.148 3.335 1.148Z" fill="#FFF"/><path d="m160 5.383-3.389 17.314H152.8l.359-1.781c-1.494 1.34-3.35 2.01-5.568 2.01-1.411 0-2.687-.303-3.827-.91-1.14-.607-2.041-1.488-2.702-2.644-.661-1.156-.992-2.512-.992-4.07 0-1.92.422-3.654 1.265-5.2.844-1.547 1.994-2.753 3.452-3.618 1.463-.866 3.1-1.299 4.912-1.299 2.728 0 4.67.919 5.826 2.755l.477-2.557H160Zm-11.386 14.068c1.129 0 2.137-.274 3.022-.823.885-.55 1.583-1.314 2.093-2.296.515-.987.773-2.109.773-3.365 0-1.361-.396-2.425-1.187-3.19-.791-.77-1.9-1.156-3.327-1.156-1.13 0-2.137.277-3.022.831-.885.55-1.585 1.317-2.101 2.304-.51.982-.765 2.1-.765 3.357 0 1.361.393 2.425 1.179 3.19.791.765 1.903 1.148 3.335 1.148Z" fill="#FFF"/><path d="M105.821 3.316a10.126 10.126 0 0 0-5.879.937 10.306 10.306 0 0 0-4.375 4.09 10.505 10.505 0 0 0 .658 11.528 10.26 10.26 0 0 0 4.81 3.552 10.12 10.12 0 0 0 5.947.243 10.228 10.228 0 0 0 5.078-3.146 10.45 10.45 0 0 0 2.498-5.476 10.517 10.517 0 0 0-.652-5.338 10.382 10.382 0 0 0-3.198-4.293 10.177 10.177 0 0 0-4.887-2.097Zm-.283 2.059a8.153 8.153 0 0 1 4.312 2.02 8.33 8.33 0 0 1 2.484 4.103 30.345 30.345 0 0 0-7.362-2.006 29.97 29.97 0 0 0-7.646-.095 8.246 8.246 0 0 1 3.503-3.275 8.103 8.103 0 0 1 4.709-.747Zm-9.35 7.774 1.145.026c.848.019 1.672.28 2.38.754a4.54 4.54 0 0 1 1.615 1.924c.348.783.471 1.65.354 2.501l-.404 2.933a8.23 8.23 0 0 1-3.827-3.245 8.4 8.4 0 0 1-1.263-4.893Zm9.152 8.713.403-2.934a4.58 4.58 0 0 1 1.011-2.297 4.485 4.485 0 0 1 2.059-1.403 4.431 4.431 0 0 1 2.48-.079l1.109.293a8.339 8.339 0 0 1-2.523 4.35 8.148 8.148 0 0 1-4.539 2.07Z" fill="#FFF" fill-rule="evenodd"/><path d="M105.821 3.316a10.126 10.126 0 0 0-5.879.937 10.306 10.306 0 0 0-4.375 4.09 10.505 10.505 0 0 0 .658 11.528 10.26 10.26 0 0 0 4.81 3.552 10.12 10.12 0 0 0 5.947.243 10.228 10.228 0 0 0 5.078-3.146 10.45 10.45 0 0 0 2.498-5.476 10.517 10.517 0 0 0-.652-5.338 10.382 10.382 0 0 0-3.198-4.293 10.177 10.177 0 0 0-4.887-2.097Zm-.283 2.059a8.153 8.153 0 0 1 4.312 2.02 8.33 8.33 0 0 1 2.484 4.103 30.345 30.345 0 0 0-7.362-2.006 29.97 29.97 0 0 0-7.646-.095 8.246 8.246 0 0 1 3.503-3.275 8.103 8.103 0 0 1 4.709-.747Zm-9.35 7.774 1.145.026c.848.019 1.672.28 2.38.754a4.54 4.54 0 0 1 1.615 1.924c.348.783.471 1.65.354 2.501l-.404 2.933a8.23 8.23 0 0 1-3.827-3.245 8.4 8.4 0 0 1-1.263-4.893Zm9.152 8.713.403-2.934a4.58 4.58 0 0 1 1.011-2.297 4.485 4.485 0 0 1 2.059-1.403 4.431 4.431 0 0 1 2.48-.079l1.109.293a8.339 8.339 0 0 1-2.523 4.35 8.148 8.148 0 0 1-4.539 2.07Z" fill="#FFF" fill-rule="evenodd"/><path d="M18.938 17.44H7.677L4.45 22.697H0L14.557 0h4.123l5.569 22.697h-4.124l-1.187-5.257Zm-.765-3.301L15.9 4.149l-6.17 9.99h8.443Z" fill="#FFF"/><path d="M18.938 17.44H7.677L4.45 22.697H0L14.557 0h4.123l5.569 22.697h-4.124l-1.187-5.257Zm-.765-3.301L15.9 4.149l-6.17 9.99h8.443Z" fill="red"/></svg>
